src/components/LandingPage/images/green-check.svg

<svg xmlns="http://www.w3.org/2000/svg" width="35" height="30" fill="none" viewBox="0 0 35 30"><g filter="url(#filter0_d)"><path fill="#47E1A1" d="M29.765 0.000116671H26.4004V1.11631H25.2842V2.23935H24.16V3.35554H23.0438V4.47971H21.9208V5.59591H20.8046V6.72008H19.6793V7.83514H18.5642V8.96045H17.4401V10.0846H16.3159V11.1997H15.1997V12.3239H14.0755V13.44H12.9605V14.5642H11.8363V13.44H10.7201V12.3239H9.59593V11.1997H8.48088V10.0846H7.35557V8.96045H4V14.5641H5.11619V15.6803H6.24037V16.8034H7.35542V17.9196H8.48073V19.0437H9.59579V20.1599H10.72V21.2841H14.0755V20.1599H15.1997V19.0437H16.3159V17.9196H17.4401V16.8034H18.5642V15.6803H19.6793V14.5641H20.8046V13.44H21.9208V12.3238H23.0438V11.1996H24.16V10.0845H25.2842V8.96036H26.4004V7.83505H27.5246V6.71999H28.6396V5.59582H29.7649V4.47963H30.88V0L29.765 0.000116671Z"/></g><defs><filter id="filter0_d" width="34.88" height="29.284" x="0" y="0" color-interpolation-filters="sRGB" filterUnits="userSpaceOnUse"><feFlood flood-opacity="0" result="BackgroundImageFix"/><feColorMatrix in="SourceAlpha" type="matrix" values="0 0 0 0 0 0 0 0 0 0 0 0 0 0 0 0 0 0 127 0"/><feOffset dy="4"/><feGaussianBlur stdDeviation="2"/><feColorMatrix type="matrix" values="0 0 0 0 0.278431 0 0 0 0 0.882353 0 0 0 0 0.631373 0 0 0 0.15 0"/><feBlend in2="BackgroundImageFix" mode="normal" result="effect1_dropShadow"/><feBlend in="SourceGraphic" in2="effect1_dropShadow" mode="normal" result="shape"/></filter></defs></svg>

<svg fill="none" viewBox="0 0 35 30"><g filter="url(#filter0_d)"><path fill="#47E1A1" d="M29.765 0H26.4v1.116h-1.116V2.24H24.16v1.117h-1.116V4.48H21.92v1.116h-1.116V6.72h-1.126v1.115h-1.115V8.96H17.44v1.125h-1.124V11.2H15.2v1.124h-1.124v1.116H12.96v1.124h-1.124V13.44H10.72v-1.116H9.596V11.2H8.48v-1.115H7.356V8.96H4v5.604h1.116v1.116H6.24v1.123h1.115v1.117h1.126v1.124h1.115v1.116h1.124v1.124h3.355V20.16H15.2v-1.116h1.116V17.92h1.124v-1.117h1.124V15.68h1.115v-1.116h1.126V13.44h1.116v-1.116h1.123V11.2h1.116v-1.115h1.124V8.96H26.4V7.835h1.125V6.72h1.115V5.596h1.125V4.48h1.115V0h-1.115z"/></g><defs><filter id="filter0_d" width="34.88" height="29.284" x="0" y="0" color-interpolation-filters="sRGB" filterUnits="userSpaceOnUse"><feFlood flood-opacity="0" result="BackgroundImageFix"/><feColorMatrix in="SourceAlpha" values="0 0 0 0 0 0 0 0 0 0 0 0 0 0 0 0 0 0 127 0"/><feOffset dy="4"/><feGaussianBlur stdDeviation="2"/><feColorMatrix values="0 0 0 0 0.278431 0 0 0 0 0.882353 0 0 0 0 0.631373 0 0 0 0.15 0"/><feBlend in2="BackgroundImageFix" result="effect1_dropShadow"/><feBlend in="SourceGraphic" in2="effect1_dropShadow" result="shape"/></filter></defs></svg>
